src/next/cmd/ko/sc_underline.svg

<svg height="16" viewBox="0 0 16 16" width="16" xmlns="http://www.w3.org/2000/svg" xmlns:xlink="http://www.w3.org/1999/xlink"><linearGradient id="a" gradientUnits="userSpaceOnUse" x1="61.999996" x2="61.999996" y1="82.133324" y2="-3.733333"><stop offset="0" stop-color="#1c1c1c"/><stop offset=".5" stop-color="#888"/><stop offset="1"/></linearGradient>





/&amp;amp;amp;amp;gt;<g transform="scale(.125)"><path d="m89.999993 0v111.99999h14.000007v-48.99999h13.99999v-14h-13.99999v-49zm-83.9999941 7.0000003v13.9999987h55.9999981c0 42.000001-27.999999 70.000002-55.9999981 70.000002v13.999989c41.9999991 0 69.9999991-34.999992 69.9999991-87.800782v-10.1992077z" fill="url(#a)" fill-rule="evenodd"/><rect fill="#010101" height="8" rx="1.78422" ry="2.29502" width="128" y="120"/></g></svg>

<?xml version="1.0" encoding="UTF-8" standalone="no"?>
<svg
   xmlns:dc="http://purl.org/dc/elements/1.1/"
   xmlns:cc="http://creativecommons.org/ns#"
   xmlns:rdf="http://www.w3.org/1999/02/22-rdf-syntax-ns#"
   xmlns:svg="http://www.w3.org/2000/svg"
   xmlns="http://www.w3.org/2000/svg"
   xmlns:sodipodi="http://sodipodi.sourceforge.net/DTD/sodipodi-0.dtd"
   xmlns:inkscape="http://www.inkscape.org/namespaces/inkscape"
   height="16"
   viewBox="0 0 16 16"
   width="16"
   version="1.1"
   id="svg13"
   sodipodi:docname="sc_underline.svg"
   inkscape:version="0.92.4 (unknown)"><metadata
   id="metadata19">
  <rdf:RDF>
    <cc:Work
       rdf:about="">
      <dc:format>image/svg+xml</dc:format>
      <dc:type
         rdf:resource="http://purl.org/dc/dcmitype/StillImage" />
      <dc:title></dc:title>
    </cc:Work>
  </rdf:RDF>
</metadata>
<defs
   id="defs17" />
<sodipodi:namedview
   pagecolor="#ffffff"
   bordercolor="#666666"
   borderopacity="1"
   objecttolerance="10"
   gridtolerance="10"
   guidetolerance="10"
   inkscape:pageopacity="0"
   inkscape:pageshadow="2"
   inkscape:window-width="1366"
   inkscape:window-height="706"
   id="namedview15"
   showgrid="false"
   inkscape:zoom="20.85965"
   inkscape:cx="2.396705"
   inkscape:cy="6.8589072"
   inkscape:window-x="0"
   inkscape:window-y="0"
   inkscape:window-maximized="1"
   inkscape:current-layer="svg13" />
<linearGradient
   id="a"
   gradientUnits="userSpaceOnUse"
   x1="61.999996"
   x2="61.999996"
   y1="82.133324"
   y2="-3.7333331">
  <stop
     offset="0"
     stop-color="#1c1c1c"
     id="stop2" />
  <stop
     offset=".5"
     stop-color="#888"
     id="stop4" />
  <stop
     offset="1"
     id="stop6" />
</linearGradient>





/&amp;amp;amp;gt;<g
   id="g828"
   transform="scale(0.125)">
  <path
     id="path9"
     d="M 89.999993,0 V 111.99999 H 104 V 63 h 13.99999 V 49 H 104 V 0 Z M 5.9999989,7.0000003 V 20.999999 H 61.999997 C 61.999997,63 33.999998,91.000001 5.9999989,91.000001 v 13.999989 c 41.9999991,0 69.9999991,-34.999992 69.9999991,-87.800782 V 7.0000003 Z"
     style="fill:url(#a);fill-rule:evenodd"
     inkscape:connector-curvature="0" />
  <rect
     id="rect11"
     y="120"
     width="128"
     ry="2.2950201"
     rx="1.78422"
     height="8"
     x="0"
     style="fill:#010101" />
</g>
</svg>
